src/card_system/mir.svg

<svg viewBox="0 0 256 256" fill="none" xmlns="http://www.w3.org/2000/svg">
<path d="M0 0H256V256H0V0Z" fill="white"/>
<path fill-rule="evenodd" clip-rule="evenodd" d="M38.5402 98.0103C40.5233 97.9985 46.4169 97.4677 48.9133 105.893C50.5949 111.569 53.2736 120.865 56.9495 133.783H58.4465C62.3884 120.164 65.0964 110.867 66.5703 105.893C69.0927 97.3799 75.3987 98.0105 77.9212 98.0105L97.3822 98.0105V158.548H77.547V122.872H76.2169L65.1597 158.548H50.2362L39.179 122.846H37.8489V158.548H18.0137V98.0105L38.5402 98.0103ZM125.865 98.0105V133.713H127.448L140.898 104.355C143.509 98.5128 149.073 98.0105 149.073 98.0105H168.268V158.549H148.018V122.846H146.436L133.25 152.204C130.639 158.02 124.81 158.549 124.81 158.549H105.616V98.0105H125.865ZM238.259 126.779C235.435 134.783 226.564 140.515 216.744 140.515H195.508V158.549H176.252V126.779H238.259Z" fill="#0F754E"/>
<path fill-rule="evenodd" clip-rule="evenodd" d="M217.672 98.0117H175.242C176.252 111.49 187.859 123.027 199.874 123.027H239.597C241.89 111.826 233.998 98.0117 217.672 98.0117Z" fill="url(#paint0_linear)"/>
<defs>
<linearGradient id="paint0_linear" x1="239.987" y1="113.748" x2="175.242" y2="113.748" gradientUnits="userSpaceOnUse">
<stop stop-color="#1F5CD7"/>
<stop offset="1" stop-color="#02AEFF"/>
</linearGradient>
</defs>
</svg>

<svg xmlns="http://www.w3.org/2000/svg" viewBox="0 0 256 256"><defs><style>.cls-1{fill:#0f754e;}.cls-1,.cls-2{fill-rule:evenodd;}.cls-2{fill:#05a8fc;}</style></defs><path class="cls-1" d="M38.54,98c2,0,7.88-.54,10.37,7.88q2.52,8.52,8,27.89h1.5q5.91-20.43,8.12-27.89C69.09,97.38,75.4,98,77.92,98H97.38v60.54H77.55V122.87H76.22L65.16,158.55H50.24l-11.06-35.7H37.85v35.7H18V98Zm87.33,0v35.7h1.58l13.45-29.35A10.62,10.62,0,0,1,149.07,98h19.2v60.54H148v-35.7h-1.58L133.25,152.2a11,11,0,0,1-8.44,6.35H105.62V98Zm112.39,28.77c-2.83,8-11.7,13.73-21.52,13.73H195.51v18H176.25V126.78Z"/><path class="cls-2" d="M217.67,98H175.24c1,13.48,12.62,25,24.63,25H239.6C241.89,111.83,234,98,217.67,98Z"/></svg>
